X: 18688
T: I'm Ready Now!
R: reel
M: 4/4
K: Dmajor
f3g e3g|fded cAAg|fdfa e3g|1 fdec d2de:|2 fdec d2ed||
|:cA (3AAA cded|cAGE FDDB|cBAB cdeg|1 fdec d2ed:|2 fdec d2de||

